!!!OTL: We Three Kings of Orient Are
!!!COM: Hopkins, John Henry
!!!ODT: 1857
!!!YOR: The Christmas Fake Book
!!!YOY: 1990
!!!AST: Christmas song
!!!YEC: Brian Luke, 2001
**kern	**harm
*k[f#]	*k[f#]
*M3/8	*M3/8
*e:	*e:
*>A	*>A
=1	=1
4b	i
8a	.
=2	=2
4g	.
8e	.
=3	=3
8f#	V7
8g	.
8f#	.
=4	=4
4.e	i;
=5	=5
4b	.
8a	.
=6	=6
4g	.
8e	.
=7	=7
8f#	V7
8g	.
8f#	.
=8	=8
4.e	i;
=9	=9
4g	.
8g	.
=10	=10
4a	V/III
8a	.
=11	=11
4b	III
8b	.
=12	=12
8dd	.
8cc	.
8b	.
=13	=13
8a	iv
8b	.
8a	.
=14	=14
4g	V7
8f#	.
=15	=15
4.e	i;
*G:	*G:
=16	=16
4f#	V7
8a;	.
*>B	*>B
=17	=17
4g	I
8g	.
=18	=18
4g	.
8d	.
=19	=19
4g	IV
8e	.
=20	=20
4.g	I
=21	=21
4g	.
8g	.
=22	=22
4g	.
8d	.
=23	=23
4g	IV
8e	.
=24	=24
4.g	I
=25	=25
4g	vi
8g	.
=26	=26
4a	V
8b	I
=27	=27
4cc	IV
8b	I
=28	=28
4a	V
8b	I
=29	=29
4g	.
8g	.
=30	=30
4g	.
8d	.
=31	=31
4g	IV
8e	.
=32	=32
4.g	I:
*-	*-
